X:18
T:What Can The Matter Be
S:American Veteran Fifer #18
C:W.R.Miller, Co.K.15th O.V.I.
M:6/8
L:1/8
Q:1/8=300
K:A 
%%MIDI program 72
%%MIDI transpose 8
%%MIDI ratio 3 1
|: e2z e2z | eca ecA | d2z d2z | dBc dcB |
e2z e2z | eca ecA | FAd cdB | A3 A3 :|
|: ecd ecd | eca ecA | dBc dBc | dBc dcB |
ecd ecd | eca ecA | FAd cdB | A3 A3 :|


